X: 16100
T: Green Forest, The
R: jig
M: 6/8
K: Gmajor
|:ge|dBG GAG|GBd efg|dBG GBd|ecA ABc|
dBG EFG|DGB ABc|dec BcA|BGF G:|
|:Bd|gfg GBd|gfg afd|gfg GBd|ecA ABd|
gfe ded|cBc ABc|dec BcA|BGF G:|

